X:003
U: ~ = !turn!
%%topmargin 3cm
T:Arboe
B:Traditional Irish Fiddle Tunes. Randy Miller and Jack Perron.
Z:Transcribed by Ralph Palmer
S:Na Fili
R:Reel
L:1/8
M:C|
K:G
d2 BG dGBG | ~G2 Bd ef ((3gfe) | d2 BG dGBG | ABcd edBc :|
g2 bg ((3efg) dg | ((3efg) dg edBd | g2 bg ((3efg) dB | ABcd edBd |
g2 bg ((3efg) dg | ((3efg) dg edBd | ga ((3bag) ef ((3gfd) | dega bage |]
